!!!COM: Scarlatti, Domenico
!!!CDT: 1685-1757
!!!OTL: Sonata in C major, L.127, K.348
!!!SCT: K. 348
!!!SCT: L. 127
!!!OMD: Prestissimo ([quarter]=144)
**kern	**kern	**dynam
*staff2	*staff1	*staff1/2
*Icemba	*Icemba	*
*I"L.127 (K.348)	*I"L.127 (K.348)	*
*clefF4	*clefG2	*
*k[f#]	*k[f#]	*
*M3/4	*M3/4	*
*MM144	*MM144	*
=1	=1	=1
2.GG	(16gLL<	f
.	16b	.
.	16a	.
.	16ccJJ	.
.	16bLL	.
.	16dd	.
.	16cc	.
.	16eeJJ	.
.	16ddLL	.
.	16ff#	.
.	16ee	.
.	16ggJJ	.
=2	=2	=2
4%3r	16ff#LL	.
.	16aa	.
.	16gg	.
.	16bbJJ	.
.	16aaLL	.
.	16gg	.
.	16ff#	.
.	16eeJJ	.
.	16ddLL	.
.	16cc	.
.	16b	.
.	16aJJ	.
*clefG2	*	*
=3	=3	=3
(16GLL	4b)	.
16B	.	.
16A	.	.
16cJJ	.	.
16BLL	4r	.
16d	.	.
16c	.	.
16eJJ	.	.
16dLL	4r	.
16f#	.	.
16e	.	.
16gJJ	.	.
!!LO:LB:g=z
=4	=4	=4
16f#LL	4%3r	.
16a	.	.
16g	.	.
16bJJ	.	.
16aLL	.	.
16g	.	.
16f#	.	.
16eJJ	.	.
16dLL	.	.
16c	.	.
16B	.	.
16AJJ	.	.
=5	=5	=5
2G)	16r	.
.	(16ddLL	<
.	16ee	.
.	16ff#JJ	.
.	16ggLL	[ >
.	16dd	.
.	16b	.
.	16gJJ	.
*clefF4	*	*
4D~	16dLL	]
.	16cc	.
.	16b	.
.	16aJJ	.
=6	=6	=6
2GG~	16bLL	<
.	16dd	.
.	16ee	.
.	16ff#JJ	.
.	16ggLL	[ >
.	16dd	.
.	16b	.
.	16gJJ	.
4D~	16dLL	]
.	16cc	.
.	16b	.
.	16aJJ	.
!!LO:LB:g=z
=7	=7	=7
16GG'^	2cc)	.
(16dLL	.	<
16e	.	.
16f#JJ	.	.
16gLL	.	[[
16d	.	>
16B	.	.
16GJJ	.	.
.	(16qqcc	.
*ped	*	*
16DLL	(4ccT)	]
16c	.	.
16B	.	.
16AJJ	.	.
.	16qqb/LL	.
.	16qqcc/JJ	.
=8	=8	=8
*Xped	*	*
16GLL	2b)	<
16d	.	.
16e	.	.
16f#JJ	.	.
16gLL	.	[ >
16d	.	.
16B	.	.
16GJJ	.	.
*ped	*	*
.	(16qqcc	.
16DLL	(4ccT)	]
16c	.	.
16B	.	.
16AJJ	.	.
.	16qqb/LL	.
.	16qqcc/JJ	.
=9	=9	=9
*Xped	*	*
2G)	(16b'LL)	p
.	16gg	.
.	16ff#	.
.	16ggJJ	.
.	16bbLL	.
.	16gg	.
.	16ff#	.
.	16ggJJ	.
4GG'	16b'LL	.
.	16bb	.
.	16aa	.
.	16ggJJ	.
!!LO:LB:g=z
=10	=10	=10
2FF#	16a'LL	.
.	16ff#	.
.	16ee	.
.	16ff#JJ	.
.	16aaLL	.
.	16ff#	.
.	16ee	.
.	16ff#JJ	.
4F#'	16a'LL	.
.	16aa	.
.	16gg	.
.	16ff#JJ	.
=11	=11	=11
2E	16g'LL	.
.	16ee	.
.	16dd	.
.	16eeJJ	.
.	16ggLL	.
.	16ee	.
.	16dd	.
.	16eeJJ	.
4AA'	16g'LL	<
.	16gg	.
.	16ff#	.
.	16eeJJ	[[
=12	=12	=12
(16D'LL	4ff#	mf
16d	.	.
16c#X	.	.
16dJJ	.	.
16f#LL	4dd)	<
16d	.	.
16c#	.	.
16dJJ	.	.
16D'LL	4ff#'	.
16d	.	.
16c#	.	.
16BJJ)	.	.
!!LO:LB:g=z
=13	=13	=13
(16AA'LL	(4aa	.
16A	.	.
16G#X	.	.
16AJJ	.	.
16c#X'LL	4a)	.
16A	.	.
16G#	.	.
16AJJ	.	.
16AA'LL	4gg'	.
16Gn	.	.
16F#	.	.
16EJJ)	.	.
=14	=14	=14
(16D'LL	(4ff#	.
16d	.	.
16c#X	.	.
16dJJ	.	.
16f#LL	4dd)	.
16d	.	.
16c#	.	.
16dJJ	.	.
16D'LL	4ff#'	.
16d	.	.
16c#	.	.
16BJJ)	.	.
=15	=15	=15
*ped	*	*
(16AALL	(4a\	f
16C#X	.	.
16E	.	.
16AJJ	.	.
16c#XLL	4aa)	.
16e	.	.
16c#	.	.
16AJJ	.	.
*Xped	*	*
16f#LL	4dd' 4ff#	.
16a	.	.
16f#	.	.
16dJJ)	.	.
!!LO:LB:g=z
=16	=16	=16
*ped	*	*
(16AALL	4cc#X (>4ee	.
16C#X	.	.
16E	.	.
16AJJ	.	.
16c#XLL	4aa)	.
16e	.	.
16c#	.	.
16AJJ	.	.
*Xped	*	*
16f#LL	4dd' 4ff#	.
16a	.	.
16f#	.	.
16dJJ)	.	.
=17	=17	=17
*ped	*	*
(16GGLL	4cc#X (>4ee	.
16C#X	.	.
16E	.	.
16GJJ	.	.
16c#XLL	4gg)	.
16e	.	.
16c#	.	.
16GJJ	.	.
16eLL	4cc#' 4ee	.
16g	.	.
16e	.	.
16c#JJ)	.	.
=18	=18	=18
*ped	*	*
4FF#'	16r	.
.	(16aaLL	.
.	16gg#X	.
.	[16aaJJ	.
*clefG2	*	*
4ddd'	16aaLL]	.
.	16ggn	.
.	16ff#	.
.	16eeJJ	.
*clefF4	*	*
(4FF#	16ddLL	.
.	16cc#X	.
.	16b	.
.	16aJJ)	.
!!LO:LB:g=z
=19	=19	=19
4GG	16b'LL	.
*Xped	*	*
.	16gg	.
.	16ff#	.
.	16ggJJ	.
4AA)	16a'LL	.
.	16ff#	.
.	16ee	.
.	16ff#JJ	.
4AA'	16g'LL	.
.	16ee	.
.	16dd	.
.	16cc#XJJ	.
=20	=20	=20
(4DD	16aaLL	.
.	16gg	.
.	16ff#	.
.	16eeJJ	.
4FF#	16ddLL	.
.	16cc#X	.
.	16b	.
.	16aJJ	.
4GG)	16gLL	.
.	16f#	.
.	16e	.
.	16dJJ	.
=21	=21	=21
*ped	*	*
(16AALL	(4a	<
16C#X	.	.
16E	.	.
16AJJ	.	.
16c#XLL	4aa)	.
16e	.	.
16c#	.	.
16AJJ	.	.
*Xped	*	*
16f#LL	4dd' 4ff#	.
16a	.	.
16f#	.	.
16dJJ)	.	.
!!LO:LB:g=z
=22	=22	=22
*ped	*	*
(16AALL	4cc#X (>4ee	.
16C#X	.	.
16E	.	.
16AJJ	.	.
16c#XLL	4aa)	.
16e	.	.
16c#	.	.
16AJJ	.	.
*Xped	*	*
16f#LL	4dd' 4ff#	.
16a	.	.
16f#	.	.
16dJJ)	.	.
=23	=23	=23
*ped	*	*
(16GGLL	4cc#X (>4ee	.
16C#X	.	.
16E	.	.
16GJJ	.	.
16c#XLL	4gg)	.
16e	.	.
16c#	.	.
16GJJ	.	.
16eLL	4cc#' 4ee	.
16g	.	.
16e	.	.
16c#JJ)	.	.
=24	=24	=24
*ped	*	*
4FF#'	16r	f
.	(>16aaLL	.
.	16gg#X	.
.	[16aaJJ	.
*clefG2	*	*
4ddd'	16aaLL]	.
.	16ggn	.
.	16ff#	.
.	16eeJJ	.
*clefF4	*	*
(4FF#	16ddLL	.
.	16cc#X	.
.	16b	.
.	16aJJ	.
!!LO:LB:g=z
=25	=25	=25
*Xped	*	*
4GG	16g'LL	.
.	16gg	.
.	16ff#	.
.	16ggJJ	.
4AA)	16a'LL	.
.	16ff#	.
.	16ee	.
.	16ff#JJ	.
4AA'	16g'LL	.
.	16ee	.
.	16dd	.
.	16cc#XJJ	.
=26	=26	=26
(4DD	16ddLL	.
.	16aa	.
.	16gg	.
.	16aaJJ	.
4FF#	16ff#LL	.
.	16gg	.
.	16ee	.
.	16ff#JJ	.
4AA	16ddLL	.
.	16ee	.
.	16a	.
.	16cc#XJJ	.
=27	=27	=27
4DD	16ddLL<	.
.	16a	.
.	16g	.
.	16aJJ	.
4FF#	16f#LL	.
.	16g	.
.	16e	.
.	16f#JJ	.
4AA	16dLL	.
.	16f#	.
.	16A	.
.	16c#XJJ	.
!!LO:LB:g=z
=28	=28	=28
4DD	16d	.
*	*clefF4	*
.	16ALL	.
.	16G	.
.	16AJJ	.
4FF#	16F#LL	.
.	16G	.
.	16E	.
.	16F#JJ	.
4AA	16DLL	.
.	16d	.
.	16E	.
.	16c#XJJ	.
=29	=29	=29
2.DD)	2.d)	.
*	*clefG2	*
=30:|!|:	=30:|!|:	=30:|!|:
*ped	*	*
2.DD 2.D	(16aaLL	f
.	16ff#	.
.	16dd	.
.	16aJJ	.
.	16f#LL	.
.	16a	.
.	16f#	.
.	16dJJ	.
*Xped	*	*
.	16bLL	.
.	16g	.
.	16d	.
.	16gJJ)	.
=31	=31	=31
*ped	*	*
2.DD 2.D	(16aaLL	.
.	16ff#	.
.	16dd	.
.	16aJJ	.
.	16f#LL	.
.	16a	.
.	16f#	.
.	16dJJ	.
*Xped	*	*
.	16bLL	.
.	16g	.
.	16d	.
.	16gJJ)	.
!!LO:LB:g=z
=32	=32	=32
*ped	*	*
2.CCnX 2.CnX	(16aaLL	.
.	16ff#	.
.	16dd#X	.
.	16ccnJJ	.
.	16aLL	.
.	16f#	.
.	16d#X	.
.	16f#JJ	.
.	16aLL	.
.	16dd#	.
.	16ff#	.
.	16aaJJ)	.
=33	=33	=33
*ped	*	*
(16BBLL	2b 2dd#X 2ff# 2aa	.
16D#X	.	.
16F#	.	.
16BJJ	.	.
16d#XLL	.	.
16f#	.	.
16d#	.	.
16BJJ	.	.
*Xped	*	*
16eLL	4b' 4ee 4gg	.
16g	.	.
16e	.	.
16BJJ)	.	.
=34	=34	=34
*ped	*	*
(16BBLL	2b 2dd#X 2ff#	.
16D#X	.	.
16F#	.	.
16BJJ	.	.
16d#XLL	.	.
16f#	.	.
16d#	.	.
16BJJ	.	.
*Xped	*	*
16eLL	4b' 4ee 4gg	.
16g	.	.
16e	.	.
16BJJ)	.	.
!!LO:LB:g=z
=35	=35	=35
*ped	*	*
(16AALL	2ccn 2ff# 2aa	.
16Cn	.	.
16D#X	.	.
16F#JJ	.	.
16d#XLL	.	.
16f#	.	.
16d#	.	.
16AJJ	.	.
16d#LL	4dd#X' 4ff#	.
16f#	.	.
16d#	.	.
16AJJ)	.	.
=36	=36	=36
*Xped	*	*
4GG'	16r	.
.	(16ggLL	.
.	16ff#	.
.	16ggJJ	.
4G' 4e	16bbLL	.
.	16ee	.
.	16dd#X	.
.	16eeJJ	.
4F#' 4d#X	16aaLL	.
.	16ff#	.
.	16ee	.
.	16ff#JJ	.
=37	=37	=37
(16E'LL	2gg	.
16e	.	.
16d#X	.	.
16eJJ	.	.
16g'LLL	.	.
16eJ	.	.
16d#	.	.
16eJJ	.	.
16E'LL	4bb)	.
16dn	.	.
16c	.	.
16BJJ)	.	.
!!LO:LB:g=z
=38	=38	=38
(2AA	16r	.
.	(16eeLL	.
.	16dd#X	.
.	16eeJJ	.
.	16cccLL	.
.	16aa	.
.	16bb	.
.	16ggJJ	.
4C)	16aaLL	.
.	16ff#	.
.	16gg	.
.	16eeJJ	.
=39	=39	=39
16D'LL	2ff#	.
(16d	.	.
16c#X	.	.
16dJJ	.	.
16f#'LL	.	.
16d	.	.
16c#	.	.
16dJJ	.	.
16D'LL	4aa)	.
16cn	.	.
16B	.	.
16AJJ)	.	.
=40	=40	=40
(<4GG	16r	<
.	(>16ddLL	.
.	16cc#X	.
.	16ddJJ	.
4G	16bbLL	.
.	16gg	.
.	16aa	.
.	16ff#JJ	.
4BB	16ggLL	.
.	16ee	.
.	16ff#	.
.	16ddJJ	.
!!LO:LB:g=z
=41	=41	=41
4C	16eeLL	.
.	16cc	.
.	16dd	.
.	16bJJ	.
4CC	16ccLL	.
.	16a	.
.	16b	.
.	16gJJ	.
4C)	16aLL	.
.	16f#	.
.	16g	.
.	16eJJ)	.
=42	=42	=42
!	!	!LO:DY:a
*ped	*	*
(16DLL	(4dd 4ff# 4aa	f
16F#	.	.
16A	.	.
16dJJ	.	.
*clefG2	*	*
16f#LL	4dd')	.
16a	.	.
16f#	.	.
16dJJ	.	.
*Xped	*	*
16bLL	4dd' 4gg 4bb	.
16dd	.	.
16b	.	.
16gJJ)	.	.
*clefF4	*	*
=43	=43	=43
*ped	*	*
(16DLL	4aa 4dd (>4ff#	.
16F#	.	.
16A	.	.
16dJJ	.	.
*clefG2	*	*
16f#LL	4dd')	.
16a	.	.
16f#	.	.
16dJJ	.	.
*Xped	*	*
16bLL	4dd' 4gg 4bb	.
16dd	.	.
16b	.	.
16gJJ)	.	.
*clefF4	*	*
!!LO:LB:g=z
=44	=44	=44
*ped	*	*
(16CLL	2cc 2ff# 2aa	.
16F#	.	.
16A	.	.
16cJJ	.	.
16f#LL	.	.
16a	.	.
16f#	.	.
16cJJ	.	.
16f#LL	4cc' 4ff# 4aa	.
16a	.	.
16f#	.	.
16cJJ)	.	.
=45	=45	=45
*ped	*	*
4BB	16r	.
.	(16ggLL	.
.	16bb	.
.	16aaJJ	.
*clefG2	*	*
4ddd'	16ggLL	.
.	16ff#	.
.	16ee	.
.	16ddJJ	.
*Xped	*	*
*clefF4	*	*
(4BBB	16ccLL<	.
.	16b	.
.	16a	.
.	16gJJ	.
=46	=46	=46
4CC	16eeLL	.
.	16cc	.
.	16dd	.
.	16eeJJ	.
4DD)	16ddLL	.
.	16b	.
.	16cc	.
.	16aJJ	.
4DD'	16bLL	.
.	16g	.
.	16a	.
.	16f#JJ)	.
!!LO:LB:g=z
=47	=47	=47
(4GG	(16dddLL	.
.	16ccc	.
.	16bb	.
.	16aaJJ	.
4BB	16ggLL	.
.	16ff#	.
.	16ee	.
.	16ddJJ	.
4C)	16ccLL<	.
.	16b	.
.	16a	.
.	16gJJ)	.
=48	=48	=48
*ped	*	*
(16DLL	4dd 4ff# (>4aa	<
16F#	.	.
16A	.	.
16dJJ	.	.
*clefG2	*	*
16f#LL	4dd')	.
16a	.	.
16f#	.	.
16dJJ	.	.
*Xped	*	*
16bLL	4dd' 4gg 4bb	.
16dd	.	.
16b	.	.
16gJJ)	.	.
*clefF4	*	*
=49	=49	=49
*ped	*	*
(16DLL	4dd 4ff# (>4aa	.
16F#	.	.
16A	.	.
16dJJ	.	.
*clefG2	*	*
16f#LL	4dd')	.
16a	.	.
16f#	.	.
16dJJ	.	.
*Xped	*	*
16bLL	4dd' 4gg 4bb	.
16dd	.	.
16b	.	.
16gJJ)	.	.
*clefF4	*	*
!!LO:LB:g=z
=50	=50	=50
*ped	*	*
16CLL	2cc 2ff# 2aa	.
(16F#	.	.
16A	.	.
16cJJ	.	.
16f#LL	.	.
16a	.	.
16f#	.	.
16cJJ	.	.
16f#LL	4cc' 4ff#	.
16a	.	.
16f#	.	.
16cJJ)	.	.
=51	=51	=51
*ped	*	*
4BB'	16r	f
.	(16ggLL	.
.	16bb	.
.	16aaJJ	.
*clefG2	*	*
4ddd'	16ggLL	.
.	16ff#	.
.	16ee	.
.	16ddJJ	.
*Xped	*	*
*clefF4	*	*
(4BBB	16ccLL	.
.	16b	.
.	16a	.
.	16gJJ	.
=52	=52	=52
4CC	16eeLL	.
.	16gg	.
.	16ff#	.
.	16eeJJ	.
4DD)	16ddLL	.
.	16cc	.
.	16b	.
.	16aJJ	.
4DD'	16gLL	.
.	16a	.
.	16d	.
.	16f#JJ	.
!!LO:LB:g=z
=53	=53	=53
(<4GG	16gLL)	.
.	(16ddd	.
.	16ccc	.
.	16dddJJ	.
4BB	16bbLL	.
.	16ccc	.
.	16aa	.
.	16bbJJ	.
4D	16ggLL	.
.	16aa	.
.	16dd	.
.	16ff#JJ	.
=54	=54	=54
4GG)	16ggLL	.
.	16dd	.
.	16cc	.
.	16ddJJ	.
(4GG	16bLL	.
.	16cc	.
.	16a	.
.	16bJJ	.
4DD	16gLL	.
.	16a	.
.	16d	.
.	16f#JJ	.
=55	=55	=55
4GG)	16gLL	.
.	16d	.
.	16c	.
.	16dJJ	.
*	*clefF4	*
4GG'	16BLL	.
.	16c	.
.	16A	.
.	16BJJ	.
4DD'	16GLL	.
.	16A	.
.	16D	.
.	16F#JJ	.
=56	=56	=56
2.GGG 2.GG	2.G)	.
=:|!	=:|!	=:|!
*-	*-	*-
!!!RDF**kern: > = above
!!!RDF**kern: < = below
!!!verovio: beamFrenchStyle 1
!!!URL-vhv: https://verovio.humdrum.org/?file=scarlatti/sonatas/L127K348.krn
!!!URL-pdf: https://github.com/craigsapp/scarlatti-keyboard-sonatas/blob/master/reference-edition/L127K348.pdf
!!!URL-youtube: https://www.youtube.com/watch?v=GjG2b2d_2MI Scott Ross, harpsichord
!!!URL-youtube: https://www.youtube.com/watch?v=6ygUvkLrZbk Claudio Colombo, harpsichord
!!!PTL: Domenico Scarlatti: Opere complete per clavicembalo
!!!PED: Longo, Alessandro
!!!PPR: Ricordi
!!!PPP: Milan
!!!PDT: 1906-1913
!!!YEC: 2021 Craig Stuart Sapp
!!!YEM: Licence: (CC BY-NC-SA 4.0) https://creativecommons.org/licenses/by-nc-sa/4.0
!!!ENC: Heinz Roggenkemper
!!!END: 2020/12/22
!!!EED: Craig Stuart Sapp
!!!EEV: 2021/02/16
